public/images/technologies/web/process/icon_hover_3.svg

<svg width="88" height="89" viewBox="0 0 88 89" fill="none" xmlns="http://www.w3.org/2000/svg">
<rect y="0.607422" width="88" height="88" rx="8" fill="url(#paint0_linear_2536_26448)"/>
<path d="M40.1647 45.5297C40.3971 45.9684 40.8667 46.0781 41.0724 46.0781C39.591 48.0248 40.2373 50.4537 40.7456 51.4247C41.2104 51.6715 41.3992 51.3219 41.4355 51.1163C40.2446 49.0325 41.2539 46.8892 41.9075 46.0781H47.1722C48.6246 47.9426 48.092 50.2137 47.6442 51.1163C47.7023 51.6646 48.1283 51.5504 48.3341 51.4247C49.4088 48.8474 48.5156 46.7864 47.9347 46.0781C48.5447 46.0781 48.794 45.8039 48.8424 45.6668V45.0156H40.1647V45.5297Z" fill="white"/>
<path d="M44.7239 47.1855H42.1055C41.8293 47.1855 41.6055 47.4094 41.6055 47.6855V52.475C41.6055 52.7512 41.8293 52.975 42.1055 52.975H46.8949C47.1711 52.975 47.3949 52.7512 47.3949 52.475V47.6855C47.3949 47.4094 47.1711 47.1855 46.8949 47.1855H46.611C46.3418 47.1855 46.1209 47.3987 46.1113 47.6677L45.9603 51.8962C45.9532 52.0943 45.7905 52.2513 45.5922 52.2513C45.3888 52.2513 45.2239 52.0864 45.2239 51.883V47.6855C45.2239 47.4094 45 47.1855 44.7239 47.1855Z" fill="white"/>
<path d="M37.4046 38.502H27.6309C27.3547 38.502 27.1309 38.7258 27.1309 39.002V39.9982C27.1309 40.2443 27.31 40.4539 27.5532 40.4921L37.327 42.0295C37.6303 42.0772 37.9046 41.8427 37.9046 41.5356V39.002C37.9046 38.7258 37.6808 38.502 37.4046 38.502Z" fill="white"/>
<path d="M51.3623 41.5333V39.002C51.3623 38.7258 51.5862 38.502 51.8623 38.502H61.3677C61.6438 38.502 61.8677 38.7258 61.8677 39.002V39.9999C61.8677 40.2453 61.6896 40.4544 61.4473 40.4935L51.9419 42.0269C51.6379 42.0759 51.3623 41.8412 51.3623 41.5333Z" fill="white"/>
<path d="M38.7109 37.332C38.7109 36.8606 38.7109 36.6249 38.8574 36.4785C39.0038 36.332 39.2395 36.332 39.7109 36.332H49.2899C49.7613 36.332 49.997 36.332 50.1434 36.4785C50.2899 36.6249 50.2899 36.8606 50.2899 37.332V43.2926C50.2899 43.764 50.2899 43.9997 50.1434 44.1461C49.997 44.2926 49.7613 44.2926 49.2899 44.2926H39.7109C39.2395 44.2926 39.0038 44.2926 38.8574 44.1461C38.7109 43.9997 38.7109 43.764 38.7109 43.2926V37.332Z" fill="white"/>
<rect x="22.7891" y="37.7793" width="3.61842" height="3.61842" rx="0.5" fill="white"/>
<rect x="62.5918" y="37.7793" width="3.61842" height="3.61842" rx="0.5" fill="white"/>
<path d="M64.0396 36.3311C64.0396 37.0548 62.4196 37.0548 60.4212 37.0548C58.4228 37.0548 56.8027 36.7308 56.8027 36.3311C56.8027 35.9314 58.4228 35.6074 60.4212 35.6074C62.4196 35.6074 64.0396 35.6076 64.0396 36.3311Z" fill="white"/>
<path d="M24.2368 36.3311C24.2368 37.0548 22.6168 37.0548 20.6184 37.0548C18.62 37.0548 17 36.7308 17 36.3311C17 35.9314 18.62 35.6074 20.6184 35.6074C22.6168 35.6074 24.2368 35.6076 24.2368 36.3311Z" fill="white"/>
<path d="M72.0005 36.3311C72.0005 36.7308 70.3805 37.0548 68.3821 37.0548C66.3837 37.0548 64.7637 37.0548 64.7637 36.3311C64.7637 35.6074 66.3837 35.6074 68.3821 35.6074C70.3805 35.6074 72.0005 35.9314 72.0005 36.3311Z" fill="white"/>
<path d="M32.1978 36.3311C32.1978 36.7308 30.5778 37.0548 28.5794 37.0548C26.581 37.0548 24.9609 37.0548 24.9609 36.3311C24.9609 35.6074 26.581 35.6074 28.5794 35.6074C30.5778 35.6074 32.1978 35.9314 32.1978 36.3311Z" fill="white"/>
<rect x="24.2363" y="45.7383" width="7.23684" height="0.723684" rx="0.361842" fill="white"/>
<rect x="52.4609" y="45.7383" width="2.17105" height="0.723684" rx="0.361842" fill="white"/>
<rect x="22.0664" y="47.9102" width="15.1974" height="0.723684" rx="0.361842" fill="white"/>
<rect x="51.0137" y="47.9102" width="15.1974" height="0.723684" rx="0.361842" fill="white"/>
<rect x="25.6836" y="50.082" width="2.17105" height="0.723684" rx="0.361842" fill="white"/>
<rect x="53.1836" y="50.082" width="4.34211" height="0.723684" rx="0.361842" fill="white"/>
<rect x="30.75" y="50.082" width="4.34211" height="0.723684" rx="0.361842" fill="white"/>
<rect x="60.4219" y="50.082" width="1.44737" height="0.723684" rx="0.361842" fill="white"/>
<rect x="30.0254" y="52.252" width="7.23684" height="0.723684" rx="0.361842" fill="white"/>
<rect x="51.7363" y="52.252" width="7.23684" height="0.723684" rx="0.361842" fill="white"/>
<rect x="33.6445" y="45.7383" width="2.17105" height="0.723684" rx="0.361842" fill="white"/>
<rect x="56.0781" y="45.7383" width="7.96053" height="0.723684" rx="0.361842" fill="white"/>
<defs>
<linearGradient id="paint0_linear_2536_26448" x1="0" y1="45.7966" x2="88" y2="45.7966" gradientUnits="userSpaceOnUse">
<stop stop-color="#00469F"/>
<stop offset="1" stop-color="#1E79D6"/>
</linearGradient>
</defs>
</svg>

<svg xmlns="http://www.w3.org/2000/svg" width="88" height="89" fill="none" xmlns:v="https://vecta.io/nano"><rect y=".607" width="88" height="88" rx="8" fill="url(#A)"/><g fill="#fff"><path d="M40.165 45.53c.232.439.702.548.908.548-1.481 1.947-.835 4.376-.327 5.347.465.247.654-.103.69-.308-1.191-2.084-.182-4.227.472-5.038h5.265c1.452 1.864.92 4.136.472 5.038.058.548.484.434.69.308 1.075-2.577.181-4.638-.399-5.347.61 0 .859-.274.908-.411v-.651h-8.678v.514zm4.559 1.656h-2.618a.5.5 0 0 0-.5.5v4.79a.5.5 0 0 0 .5.5h4.789a.5.5 0 0 0 .5-.5v-4.79a.5.5 0 0 0-.5-.5h-.284a.5.5 0 0 0-.5.482l-.151 4.228a.37.37 0 0 1-.368.355.37.37 0 0 1-.368-.368v-4.198a.5.5 0 0 0-.5-.5zm-7.319-8.684h-9.774a.5.5 0 0 0-.5.5v.996a.5.5 0 0 0 .422.494l9.774 1.537a.5.5 0 0 0 .578-.494v-2.534a.5.5 0 0 0-.5-.5zm13.957 3.031v-2.531a.5.5 0 0 1 .5-.5h9.505a.5.5 0 0 1 .5.5V40a.5.5 0 0 1-.42.494l-9.505 1.533a.5.5 0 0 1-.58-.494zm-12.651-4.201c0-.471 0-.707.146-.854s.382-.146.854-.146h9.579c.471 0 .707 0 .853.146s.147.382.147.854v5.961c0 .471 0 .707-.147.853s-.382.147-.853.147h-9.579c-.471 0-.707 0-.854-.147s-.146-.382-.146-.853v-5.961z"/><rect x="22.789" y="37.779" width="3.618" height="3.618" rx=".5"/><rect x="62.592" y="37.779" width="3.618" height="3.618" rx=".5"/><path d="M64.04 36.331c0 .724-1.62.724-3.618.724s-3.618-.324-3.618-.724 1.62-.724 3.618-.724 3.618 0 3.618.724zm-39.803 0c0 .724-1.62.724-3.618.724S17 36.731 17 36.331s1.62-.724 3.618-.724 3.618 0 3.618.724zm47.764 0c0 .4-1.62.724-3.618.724s-3.618 0-3.618-.724 1.62-.724 3.618-.724 3.618.324 3.618.724zm-39.803 0c0 .4-1.62.724-3.618.724s-3.619 0-3.619-.724 1.62-.724 3.619-.724 3.618.324 3.618.724z"/><rect x="24.236" y="45.738" width="7.237" height=".724" rx=".362"/><rect x="52.461" y="45.738" width="2.171" height=".724" rx=".362"/><rect x="22.066" y="47.91" width="15.197" height=".724" rx=".362"/><rect x="51.014" y="47.91" width="15.197" height=".724" rx=".362"/><rect x="25.684" y="50.082" width="2.171" height=".724" rx=".362"/><rect x="53.184" y="50.082" width="4.342" height=".724" rx=".362"/><rect x="30.75" y="50.082" width="4.342" height=".724" rx=".362"/><rect x="60.422" y="50.082" width="1.447" height=".724" rx=".362"/><rect x="30.025" y="52.252" width="7.237" height=".724" rx=".362"/><rect x="51.736" y="52.252" width="7.237" height=".724" rx=".362"/><rect x="33.645" y="45.738" width="2.171" height=".724" rx=".362"/><rect x="56.078" y="45.738" width="7.961" height=".724" rx=".362"/></g><defs><linearGradient id="A" x1="0" y1="45.797" x2="88" y2="45.797" gradientUnits="userSpaceOnUse"><stop stop-color="#00469f"/><stop offset="1" stop-color="#1e79d6"/></linearGradient></defs></svg>
